X: 28156
T: Mrs Lawrie's
R: reel
M: 4/4
K: Gdorian
cBAc BGG^F|G2B,D GABG|~G2AF ~F2Bc|dggf g2ag|
fd~d2 gfdc|~B3c A3c|(3Bcd cA BGAc|(3Bcd A^F G3c|
cBAc BGDB,|G,3z cBAc|BG~G2 ~F2Bc|dggf g2ag|
fd~d2 gfdc|~B3c A3c|(3Bcd cA BGAc|(3Bcd A^F G2Bc||
dBcA BdcA|(3Bcd A^F G2AG|~F3G FC~C2|~F3G AcBA|
GABc dc~c2|dBAG AF~F2|~G3A GABc|dg^fa g2Bc|
(3dcB cA BdcA|(3Bcd A^F G2AG|~F3G FC~C2|~F3G AcBA|
GABc dc~c2|dBAG AF~F2|~G3A GABc|dg^fa g3B||
dg~g2 dg^fg|dg~g2 d2cB|cf~f2 cfef|gfcA F2Bc|
~d3B ~c3A|BABG AFDC|B,DGA (3Bcd cA|BdA^F G3B|
dg~g2 ag^fg|dg~g2 d2cB|cf~f2 cfef|gfcA F2Bc|
~d3B ~c3A|BABG AFDC|B,DGA (3Bcd cA|BdA^F G3z||
cBAc BGG^F|GG,B,D GABG|~G2AF ~F2Bc|dggf g2ag|
fd~d2 gfdc|~B3c A3c|(3Bcd cA BGAc|(3Bcd A^F G3c|
cBAc BGDB,|G,3z cBAc|BG~G2 ~F2Bc|dggf g2ag|
fd~d2 gfdc|~B3c A3c|(3Bcd cA BGAc|(3Bcd A^F G2Bc||
dBcA BdcA|(3Bcd A^F G2AG|~F3G FC~C2|~F3G AcBA|
GABc dc~c2|dBAG AF~F2|~G3A GABc|dg (3^fga g2Bc|
dBcA BdcA|(3Bcd A^F G2AG|~F3G FC~C2|~F3G AcBA|
GABc dc~c2|dBAG AF~F2|~G3A GABc|dg^fa g2Bc||
dg~g2 g^ffg|dg~g2 d2cB|cf~f2 cfef|gfcA F2Bc|
~d3B ~c3A|BABG AFDC|B,DGA (3Bcd cA|BdA^F G2Bc|
dg~g2 ag^fg|dg~g2 d2cB|cf~f2 cfef|gfcA F2Bc|
~d3B ~c3A|BABG AFDC|B,DGA (3Bcd cA|dz2^F G4||

